X:521
T:Reel 521
M:4/4
K:Dmaj
L:1/8
AG|FDDF A2AF|FDDF A2GF|G>E (3EEE GEEe|f>d (3dcB A2AG|FDDF A2GF|E>G (3ABc d2cB|ABGE FDEC|A,DDE D2|A2|dcde dcAc|dcdB cAAB|=cBcd c2AB| (3cBA fe dcAc|dcde dcAc|dcdB cAAd|fedc dBAG|FDEC D2|
